!!!COM: Béla Bartók
!!!OTL: [T341_Bar-w37p4-5m14-24]
**kern	**dynam	**kern	**dynam	**kern	**dynam	**kern	**dynam
*grp:A	*grp:A	*grp:B	*grp:B	*grp:B	*grp:B	*grp:A	*grp:A
*part4	*part4	*part3	*part3	*part2	*part2	*part1	*part1
*staff4	*staff4	*staff3	*staff3	*staff2	*staff2	*staff1	*staff1
*I"Violoncello	*I"Violoncello	*I"Viola	*I"Viola	*I"Violin II	*I"Violin II	*I"Violin I	*I"Violin I
*I'Vc.	*	*I'Vla.	*	*I'Vln. II	*	*I'Vln. I	*
*clefF4	*	*clefC3	*	*clefG2	*	*clefG2	*
*k[]	*	*k[]	*	*k[]	*	*k[]	*
*	*	*	*	*	*	*	*
*M4/4	*	*M4/4	*	*M4/4	*	*M4/4	*
=1	=1	=1	=1	=1	=1	=1	=1
!	!	!	!	!	!	!LO:TX:t=[quarter]=110	!
2r	.	8ryy	4ryy	1ryy	.	1r	.
.	.	8ryy	.	.	.	.	.
!	!	!LO:N:n=1:head=dia	!	!	!	!	!
.	.	8ryy	.	.	.	.	.
.	.	4ryy	.	.	.	.	.
!LO:TX:t=P:problem:cross-staff beaming not implemented yet	!	!	!	!	!	!	!
(8GG#XL	p	.	.	.	.	.	.
8AA#XJ	.	8ryy	.	.	.	.	.
8BB	.	8ryy	.	.	.	.	.
!	!	!LO:N:head=dia	!	!	!	!	!
[8AA#L	.	8ryy	.	.	.	.	.
=2	=2	=2	=2	=2	=2	=2	=2
8AA#J]	.	4ryy	.	2ryy	.	1r	.
8GG#XL	.	.	.	.	.	.	.
8DD#XJ)	.	8ryy	.	.	.	.	.
(8GG#	.	8ryy	.	.	.	.	.
!	!	!LO:N:head=dia	!	!	!	!	!
4AA#X	.	8ryy	.	4ryy	.	.	.
.	.	4ryy	.	.	.	.	.
4BB	.	.	.	8ryy	.	.	.
!	!	!	!	!LO:TX:t=P:problem:cross-staff beaming not implemented yet	!	!	!
.	.	8ryy	.	8ryy	4ryy	.	.
=3	=3	=3	=3	=3	=3	=3	=3
8AA#X	.	8ryy	.	8ryy	.	1r	.
!	!	!LO:N:head=dia	!	!	!	!	!
8GG#XL	.	8ryy	.	8ryy	.	.	.
8DD#XJ)	.	4ryy	.	8ryy	.	.	.
(8GG#	.	.	.	4ryy	.	.	.
4AA#	.	8ryy	.	.	.	.	.
.	.	8ryy	.	8ryy	.	.	.
!	!	!LO:N:head=dia	!	!	!	!	!
4BB	.	8ryy	.	8ryy	.	.	.
!	!	!LO:TX:t=P:problem:cross-staff beaming not implemented yet	!	!	!	!	!
.	.	8ryy	.	8ryy	.	.	.
=4	=4	=4	=4	=4	=4	=4	=4
8AA#X	.	8ryy	.	8ryy	.	(<8g#XL	p
!!!ONB: note that in the Violin II part, the breath mark is originally notated as a thick vertical line bisecting the E5 space on the treble stave.
8GG#XL	.	8ryy	.	8ryy	.	8a#X	.
8DD#XJ)	.	8ryy	.	8ryy	.	8cc#XJ)	.
!	!	!LO:N:head=dia	!	!	!	!	!
(8GG#L	.	8ryy	.	8ryy	.	(8ddn^	.
8AA#J	.	4ryy	.	8ryy	.	4cc#	.
4BB	.	.	.	8ryy	.	.	.
.	.	8ryy	.	4ryy	.	8a#)	.
!	!	!	!	!	!	!LO:TX:t=P:problem:cross-staff beaming not implemented yet	!
8DD#)	.	8ryy	.	.	.	(8g#L	.
=5	=5	=5	=5	=5	=5	=5	=5
!	!	!LO:N:head=dia	!	!	!	!	!
(8GG#XL	.	8ryy	.	8ryy	.	8a#X	.
8AA#XJ	.	4ryy	.	8ryy	.	8ddJ)	.
!!!ONB: note that in the Violin I part, the breath mark is originally notated as a thick vertical line bisecting the E5 space on the treble stave.
4BB	.	.	.	8ryy	.	8cc#X~,	.
.	.	8ryy	.	8ryy	.	(<8g#XL	.
!!!ONB: note that in the Violin II part, the breath mark is originally notated as a thick vertical line bisecting the E5 space on the treble stave.
4GG#	.	8ryy	.	8ryy	.	8a#	.
!	!	!LO:N:head=dia	!	!	!	!	!
.	.	8ryy	.	8ryy	.	8cc#J)	.
8CC#X)	.	8ryy	.	8ryy	.	(8dd^	.
*	*	*clefG2	*	*	*	*	*
(>8CCn	.	8ryy	4ryy	8ryy	.	[8cc#L	.
=6	=6	=6	=6	=6	=6	=6	=6
4D	.	8ryy	.	8ryy	.	8cc#J])	.
.	.	8ryy	.	4ryy	.	(8g#XL	.
!LO:N:n=1:head=dia	!	!	!	!	!	!	!
4EE/ 	.	8ryy	.	.	.	8a#X	.
.	.	4ryy	.	4ryy	.	8ddJ	.
8D)	.	.	.	.	.	8cc#X)	.
(<4CC	.	8ryy	.	4ryy	.	(8g#L	.
.	.	8ryy	.	.	.	8a#	.
8DL	.	8ryy	.	8ryy	.	8cc#J	.
=7	=7	=7	=7	=7	=7	=7	=7
!LO:N:head=dia	!	!	!	!	!	!	!
8EELJ)	.	8ryy	.	4.ryy	.	8dd)	.
(>8CC	.	8ryy	.	.	.	(<8g#XL	.
8D	.	8ryy	.	.	.	8a#X	.
!LO:N:head=dia	!	!	!	!	!	!	!
4EE)	.	4ryy	.	8ryy	.	8cc#XJ)	.
.	.	.	.	4ryy	.	(8dd^	.
*	*	*clefC3	*	*	*	*	*
(>8CC	.	8ryy	.	.	.	4cc#)	.
8DL	.	8ryy	.	4ryy	.	.	.
!LO:N:head=dia	!	!	!	!	!	!	!
8EEJ	.	8ryy	.	.	.	(8g#L	.
=8	=8	=8	=8	=8	=8	=8	=8
4D	.	4ryy	.	8ryy	.	8a#X	.
.	.	.	.	4.ryy	.	8cc#XJ)	.
!LO:N:head=dia	!	!	!	!	!	!	!
8EE)	.	8ryy	.	.	.	(4dd	.
(>8CC	.	4.ryy	.	.	.	.	.
8DL	.	.	.	8ryy	.	8gg	.
!LO:N:head=dia	!	!	!	!	!	!	!
8EEJ	.	.	.	4.ryy	.	8dd	.
4D)	.	8ryy	.	.	.	4cc#)	.
.	.	8ryy	.	.	.	.	.
=9	=9	=9	=9	=9	=9	=9	=9
(>8CC	.	8ryy	.	1ryy	.	(8dL	.
4D	.	8ryy	.	.	.	8gJ)	.
.	.	8ryy	.	.	.	(>4a-X	.
!LO:N:head=dia	!	!	!	!	!	!	!
4EE)	.	4.ryy	.	.	.	.	.
.	.	.	.	.	.	8dd-X	.
(8CC	.	.	.	.	.	8a-	.
8DL	.	8ryy	.	.	.	[4g	.
!LO:N:head=dia	!	!	!	!	!	!	!
8EEJ)	.	8ryy	.	.	.	.	.
=10	=10	=10	=10	=10	=10	=10	=10
(4CC	.	4ryy	.	1ryy	.	8gL]	.
.	.	.	.	.	.	8a-XJ)	.
8DL	.	4ryy	4ryy	.	.	(8g	<
!LO:N:head=dia	!	!	!	!	!	!	!
8EEJ)	.	.	.	.	.	4d)	.
(8CC	.	4ryy	.	.	.	.	.
8DL	.	.	.	.	.	4g	.
!LO:N:head=dia	!	!	!	!	!	!	!
8EEJ)	.	4ryy	.	.	.	.	.
(8CC	.	.	.	.	.	(8dL	.
=11	=11	=11	=11	=11	=11	=11	=11
*	*	*	*	*	*	*^	*
8DL	.	4ryy	.	4.ryy	.	8fJ)	2ryy	.
!LO:N:head=dia	!	!	!	!	!	!	!	!
8EEJ)	.	.	.	.	.	4d	.	.
(8CC	.	4ryy	.	.	.	.	.	.
8DL	.	.	.	8ryy	.	4e	.	.
!LO:N:head=dia	!	!	!	!	!	!	!	!
8EEJ)	.	4ryy	.	4ryy	.	.	8ryy	.
8r	.	.	.	.	.	([<8dL	8dL	.
8r	.	8ryy	.	8ryy	.	8eJ)	8dJ]	.
[8c#X	pp	8ryy	.	8ryy	4ryy	8r	8ryy	.
*	*	*	*	*	*	*v	*v	*
=	=	=	=	=	=	=	=
*-	*-	*-	*-	*-	*-	*-	*-
!!!system-decoration: [(s1,s2,s3,s4)]
!!!RDF**kern: N = cue size
!!!RDF**kern: > = above
!!!RDF**kern: < = below
!!!EED: Rafael Laurindo
!!!EEV: 2021/07/12
!!!EED2: Gabriella Vici
!!!EEV2: 2022/02/16
